docs/icons/hpdf.svg

<svg xmlns="http://www.w3.org/2000/svg" width="32" height="32" viewBox="0 0 32 32" fill="none"><g clip-path="url(#clip0)"><path d="M12.8297 8.7489L9.30686 12.2496L12.8297 15.7503L16.3526 12.2496L12.8297 8.7489Z" fill="white"></path><path d="M12.8295 17.1502L10.0112 19.9508L12.8295 22.7513L15.6478 19.9508L12.8295 17.1502Z" fill="white"></path><path d="M6.48733 16.4496L9.30562 13.6491L12.1239 16.4496L9.30562 19.2502L6.48733 16.4496Z" fill="white"></path><path d="M5.78414 17.1506L4.375 18.5508L5.78414 19.9511L7.19329 18.5508L5.78414 17.1506Z" fill="white"></path><path d="M13.5336 16.4495L20.5793 9.44808L27.6251 16.4495L20.5793 23.4508L13.5336 16.4495Z" fill="white"></path></g><defs><linearGradient id="paint0_linear" x1="16" y1="0" x2="16" y2="32" gradientUnits="userSpaceOnUse"><stop stop-color="white" stop-opacity="0.1"></stop><stop offset="1" stop-color="white" stop-opacity="0.05"></stop></linearGradient><clipPath id="clip0"><rect width="32" height="32" rx="7.30097" fill="white"></rect></clipPath></defs></svg>

<svg xmlns="http://www.w3.org/2000/svg" width="32" height="32" fill="none" xmlns:v="https://vecta.io/nano"><g clip-path="url(#A)" fill="#fff"><path d="M12.83 8.749L9.307 12.25l3.523 3.501 3.523-3.501-3.523-3.501zm0 8.401l-2.818 2.801 2.818 2.8 2.818-2.8-2.818-2.801zm-6.343-.7l2.818-2.8 2.818 2.8-2.818 2.801-2.818-2.801zm-.703.701l-1.409 1.4 1.409 1.4 1.409-1.4-1.409-1.4zm7.75-.701l7.046-7.001 7.046 7.001-7.046 7.001-7.046-7.001z"/></g><defs><clipPath id="A"><rect width="32" height="32" rx="7.301" fill="#fff"/></clipPath></defs></svg>
